icons/svg/phone-hang-up.svg

<svg width="24" height="24" viewBox="0 0 24 24" fill="none" xmlns="http://www.w3.org/2000/svg">
<path d="M12.1156 7.95312C9.06301 7.95313 6.77012 8.65859 5.21724 9.38603C3.51512 10.1834 2.75 12.0184 2.75 13.898L2.75 14.5469C2.75 15.3753 3.42157 16.0469 4.25 16.0469L5.875 16.0469C6.70343 16.0469 7.375 15.3753 7.375 14.5469L7.375 14C7.375 12.8954 8.27043 12 9.375 12L14.625 12C15.7296 12 16.625 12.8954 16.625 14L16.625 14.5469C16.625 15.3753 17.2966 16.0469 18.125 16.0469H19.75C20.5784 16.0469 21.25 15.3753 21.25 14.5469V13.7378C21.25 11.9533 20.5586 10.2002 18.9574 9.41226C17.4606 8.67564 15.2049 7.95312 12.1156 7.95312Z" stroke="currentColor" stroke-width="1.5"/>
</svg>

<svg xmlns="http://www.w3.org/2000/svg" width="24" height="24" fill="none" viewBox="0 0 24 24"><path stroke="currentColor" stroke-width="1.5" d="M12.116 7.953c-3.053 0-5.346.706-6.899 1.433-1.702.797-2.467 2.632-2.467 4.512v.649a1.5 1.5 0 0 0 1.5 1.5h1.625a1.5 1.5 0 0 0 1.5-1.5V14a2 2 0 0 1 2-2h5.25a2 2 0 0 1 2 2v.547a1.5 1.5 0 0 0 1.5 1.5h1.625a1.5 1.5 0 0 0 1.5-1.5v-.81c0-1.784-.691-3.537-2.293-4.325-1.496-.736-3.752-1.459-6.841-1.459Z"/></svg>
